usr/share/icons/biglinux-icons-material/scalable/apps/kompare.svg

<?xml version="1.0" encoding="UTF-8" standalone="no"?>
<svg
   width="24"
   height="24"
   viewBox="0 0 6.349875 6.349875"
   version="1.1"
   id="svg8976"
   sodipodi:docname="org.kde.kompare.svg"
   inkscape:version="1.2.2 (b0a8486541, 2022-12-01)"
   xmlns:inkscape="http://www.inkscape.org/namespaces/inkscape"
   xmlns:sodipodi="http://sodipodi.sourceforge.net/DTD/sodipodi-0.dtd"
   xmlns:xlink="http://www.w3.org/1999/xlink"
   xmlns="http://www.w3.org/2000/svg"
   xmlns:svg="http://www.w3.org/2000/svg">
  <sodipodi:namedview
     id="namedview8978"
     pagecolor="#ffffff"
     bordercolor="#000000"
     borderopacity="0.25"
     inkscape:showpageshadow="2"
     inkscape:pageopacity="0.0"
     inkscape:pagecheckerboard="0"
     inkscape:deskcolor="#d1d1d1"
     showgrid="false"
     inkscape:zoom="9.656427"
     inkscape:cx="32.413645"
     inkscape:cy="32.620761"
     inkscape:window-width="2560"
     inkscape:window-height="998"
     inkscape:window-x="1680"
     inkscape:window-y="0"
     inkscape:window-maximized="1"
     inkscape:current-layer="svg8976" />
  <defs
     id="defs8962">
    <linearGradient
       id="a"
       x2="0"
       y1="542.79999"
       y2="504.79999"
       gradientTransform="matrix(0.35796,0,0,0.38099,-122.1632,-191.16623)"
       gradientUnits="userSpaceOnUse">
      <stop
         stop-color="#95a5a6"
         offset="0"
         id="stop8957" />
      <stop
         stop-color="#8b9e9a"
         offset="1"
         id="stop8959" />
    </linearGradient>
    <radialGradient
       fx="0"
       fy="0"
       cx="0"
       cy="0"
       r="1"
       gradientUnits="userSpaceOnUse"
       gradientTransform="matrix(0,5.8207184,-5.8207184,0,3.1748155,0.2645736)"
       spreadMethod="pad"
       id="radialGradient3666-6">
      <stop
         style="stop-color:#ffffff;stop-opacity:1;"
         offset="0"
         id="stop3662-7" />
      <stop
         style="stop-color:#edeeef;stop-opacity:1;"
         offset="1"
         id="stop3664-5" />
    </radialGradient>
    <radialGradient
       inkscape:collect="always"
       xlink:href="#radialGradient3666-6"
       id="radialGradient53151"
       gradientUnits="userSpaceOnUse"
       gradientTransform="matrix(0,5.5107267,-5.5107267,0,3.174822,0.41956971)"
       cx="0"
       cy="0"
       fx="0"
       fy="0"
       r="1"
       spreadMethod="pad" />
  </defs>
  <path
     d="m 2.5380652,0.2949077 c 0.031749,0 0.062088,-0.00423 0.091015,-0.012347 0.3802868,-0.025047 0.7605733,-0.023636 1.1398023,0.00282 0.344304,0.027516 0.677673,0.1019509 1.000458,0.2243623 0.535859,0.2204818 0.902388,0.6035909 1.100998,1.1479162 0.111476,0.3280768 0.178855,0.6656785 0.199669,1.011394 0.02751,0.4356718 0.01799,0.8695796 -0.03034,1.3038404 -0.03704,0.3044421 -0.115708,0.5965364 -0.237062,0.877694 -0.224714,0.4878823 -0.589831,0.824073 -1.093941,1.0085723 C 4.3005085,5.9970925 3.8803585,6.0701166 3.4475085,6.0771713 2.9624488,6.1032825 2.4816222,6.0658818 2.0050287,5.9681656 1.129804,5.7737883 0.5883012,5.2393413 0.384399,4.3655276 0.297619,3.9728934 0.2574021,3.5746158 0.265868,3.1721046 0.256367,2.7448985 0.301498,2.3219263 0.4023911,1.9056568 0.617228,1.0900507 1.1354482,0.5841774 1.9566992,0.3887423 2.1482538,0.3418243 2.3426306,0.3100743 2.5380655,0.2949053 Z"
     style="fill:#8d9f9d;fill-rule:evenodd;stroke:none;stroke-width:0.352683;stroke-dasharray:none;fill-opacity:0.50196081"
     id="path3668" />
  <path
     d="m 2.5719829,0.44828832 c 0.030058,0 0.058781,-0.004005 0.086168,-0.0116894 0.360034,-0.0237131 0.7200678,-0.0223772 1.0791003,0.00267 0.3259675,0.0260506 0.6415824,0.0965213 0.947177,0.21241353 C 5.191749,0.86042191 5.5387579,1.2231279 5.7267906,1.7384643 5.8323298,2.0490688 5.8961204,2.368691 5.9158259,2.6959949 5.9418708,3.1084643 5.9328578,3.5192636 5.8871017,3.9303972 5.8520343,4.2186257 5.7775559,4.4951641 5.6626648,4.7613482 5.4499183,5.2232475 5.1042462,5.5415338 4.6269834,5.7162073 4.2405644,5.8467941 3.8427902,5.9159292 3.4329923,5.9226082 2.9737652,5.9473288 2.5185458,5.9119199 2.0673341,5.8194077 1.2387209,5.6353823 0.72605668,5.1293982 0.53301362,4.3021208 0.45085523,3.930397 0.41278014,3.5533303 0.42079518,3.1722555 0.41180017,2.7678009 0.45452764,2.3673548 0.55004752,1.9732544 0.75344294,1.2010847 1.2440645,0.72215249 2.0215784,0.53712561 2.2029315,0.4927063 2.3869564,0.4626472 2.5719831,0.44828605 Z"
     style="fill:url(#radialGradient53151);fill-rule:evenodd;stroke:none;stroke-width:0.3339;stroke-dasharray:none"
     id="path53149" />
  <path
     id="path53075"
     style="stroke-width:0.399413;fill:#d6dadc;fill-opacity:1"
     d="M 0.33744046 4.1267986 C 0.35115046 4.2065421 0.36693936 4.2862443 0.38446509 4.3655391 C 0.58836708 5.2393519 1.1297823 5.7736166 2.0050061 5.9679937 C 2.4815991 6.0657098 2.9622077 6.10314 3.4472669 6.0770288 C 3.8801165 6.0699741 4.3005082 5.996891 4.7086638 5.8589586 C 5.2127733 5.6744594 5.5779186 5.338653 5.8026324 4.8507712 C 5.9033847 4.6173443 5.9740569 4.3761103 6.0165686 4.1267986 L 0.33744046 4.1267986 z " />
  <path
     fill="#aeaeae"
     d="M 1.3908374,1.9640196 H 1.6566469 V 2.0969243 H 1.3908374 Z m 0.3990865,0 H 2.188638 V 2.0969243 H 1.7899239 Z m 0.5319912,0 h 0.664896 V 2.0969243 H 2.3219151 Z M 1.3908374,2.2302012 H 1.9228286 V 2.3631059 H 1.3908374 Z m 0.6648959,0 H 2.3215428 V 2.3631059 H 2.0557333 Z M 1.3908374,2.7618199 H 1.6566469 V 2.8947248 H 1.3908374 Z m 0.3990865,0 H 2.188638 V 2.8947248 H 1.7899239 Z M 1.3908374,3.0280017 H 1.6566469 V 3.1609063 H 1.3908374 Z m 0.3990865,0 H 2.4548198 V 3.1609063 H 1.7899239 Z m 0.7978006,0 H 2.9864387 V 3.1609063 H 2.5877245 Z M 1.3908374,3.5596206 H 2.188638 V 3.6925252 H 1.3908374 Z m 0.9310777,0 H 2.7206293 V 3.6925252 H 2.3219151 Z M 1.3908374,3.8258023 H 2.0557333 V 3.9587071 H 1.3908374 Z m 0.798173,0 H 2.8539063 V 3.9587071 H 2.1890104 Z M 3.3855251,1.9640196 H 3.6513344 V 2.0969243 H 3.3855251 Z m 0.3990863,0 H 4.1833256 V 2.0969243 H 3.7846114 Z m 0.531619,0 H 4.9811261 V 2.0969243 H 4.3162304 Z M 3.3855251,2.2302012 H 3.9175162 V 2.3631059 H 3.3855251 Z m 0.6648958,0 H 4.3162304 V 2.3631059 H 4.0504209 Z M 3.3855251,2.7618199 H 3.6513344 V 2.8947248 H 3.3855251 Z m 0,0.2661818 H 3.6513344 V 3.1609063 H 3.3855251 Z m 0.3990863,0 H 4.4495073 V 3.1609063 H 3.7846114 Z m 0.7978007,0 h 0.398714 V 3.1609063 H 4.5824121 Z M 3.3855251,3.5596206 H 4.1833256 V 3.6925252 H 3.3855251 Z m 0,0.2661817 H 4.0504209 V 3.9587071 H 3.3855251 Z m 0.7978005,0 H 4.8482214 V 3.9587071 H 4.1833256 Z"
     id="path52923"
     style="stroke-width:0.372281" />
  <path
     d="M 1.3811582,1.422349 V 1.6196585 H 3.0556827 V 1.422349 Z M 4.1732739,4.347742 3.2425687,4.879733 4.1732739,5.4169358 V 5.1451704 H 5.5030656 V 4.6135513 H 4.1736462 Z"
     fill="#286da8"
     id="path52925"
     style="stroke-width:0.372281" />
  <path
     d="M 3.3955768,1.422349 V 1.6196585 H 5.1240824 V 1.422349 Z M 2.3315944,4.6135513 V 4.879733 H 1.0018026 V 5.4113514 H 2.3315944 V 5.6831176 L 3.2622996,5.1455421 Z"
     fill="#12b78c"
     id="path52927"
     style="stroke-width:0.372281" />
</svg>

<svg xmlns="http://www.w3.org/2000/svg" xmlns:xlink="http://www.w3.org/1999/xlink" width="24" height="24" viewBox="0 0 6.35 6.35"><defs><radialGradient id="a" cx="0" cy="0" r="1" fx="0" fy="0" gradientTransform="rotate(90 1.455 1.72) scale(5.82072)" gradientUnits="userSpaceOnUse" spreadMethod="pad"><stop offset="0" style="stop-color:#fff;stop-opacity:1"/><stop offset="1" style="stop-color:#edeeef;stop-opacity:1"/></radialGradient><radialGradient xlink:href="#a" id="b" cx="0" cy="0" r="1" fx="0" fy="0" gradientTransform="matrix(0 5.51073 -5.51073 0 3.175 .42)" gradientUnits="userSpaceOnUse" spreadMethod="pad"/></defs><path d="M2.538.295A.335.335 0 0 0 2.63.283c.38-.025.76-.024 1.14.002a3.62 3.62 0 0 1 1 .225c.536.22.903.603 1.101 1.148.112.328.18.665.2 1.011.028.436.018.87-.03 1.304a3.166 3.166 0 0 1-.237.878c-.225.487-.59.824-1.094 1.008a4.125 4.125 0 0 1-1.261.218 5.643 5.643 0 0 1-1.443-.109C1.13 5.774.588 5.24.385 4.366a5.025 5.025 0 0 1-.12-1.194c-.009-.427.036-.85.137-1.266C.617 1.09 1.135.584 1.957.389c.191-.047.386-.079.581-.094Z" style="fill:#8d9f9d;fill-rule:evenodd;stroke:none;stroke-width:.352683;stroke-dasharray:none;fill-opacity:.50196081"/><path d="M2.572.448c.03 0 .059-.004.086-.011a7.97 7.97 0 0 1 1.08.002c.325.026.64.097.946.213a1.79 1.79 0 0 1 1.043 1.086c.105.311.17.63.189.958a7.09 7.09 0 0 1-.029 1.234c-.035.289-.11.565-.224.831-.213.462-.559.78-1.036.955-.386.13-.784.2-1.194.207-.46.024-.914-.011-1.366-.104C1.24 5.635.727 5.13.533 4.302a4.757 4.757 0 0 1-.112-1.13A4.636 4.636 0 0 1 .55 1.973c.203-.772.694-1.25 1.472-1.436a3.43 3.43 0 0 1 .55-.089Z" style="fill:url(#b);fill-rule:evenodd;stroke:none;stroke-width:.3339;stroke-dasharray:none"/><path d="M.337 4.127c.014.08.03.16.047.239.204.873.746 1.408 1.621 1.602.477.098.957.135 1.442.109.433-.007.854-.08 1.262-.218.504-.185.869-.52 1.094-1.008.1-.234.171-.475.214-.724H.337z" style="stroke-width:.399413;fill:#d6dadc;fill-opacity:1"/><path fill="#aeaeae" d="M1.39 1.964h.267v.133H1.39Zm.4 0h.399v.133h-.4Zm.532 0h.665v.133h-.665Zm-.931.266h.532v.133H1.39Zm.665 0h.266v.133h-.266Zm-.665.532h.266v.133H1.39Zm.399 0h.399v.133h-.4Zm-.4.266h.267v.133H1.39Zm.4 0h.665v.133H1.79Zm.798 0h.398v.133h-.398ZM1.39 3.56h.798v.133H1.39Zm.93 0h.4v.133h-.4Zm-.93.266h.665v.133H1.39Zm.798 0h.665v.133h-.665Zm1.197-1.862h.265v.133h-.265Zm.399 0h.398v.133h-.398Zm.531 0h.665v.133h-.665Zm-.93.266h.532v.133h-.532Zm.664 0h.266v.133H4.05Zm-.664.532h.265v.133h-.265Zm0 .266h.265v.133h-.265Zm.399 0h.665v.133h-.665Zm.797 0h.4v.133h-.4Zm-1.196.532h.797v.133h-.797Zm0 .266h.664v.133h-.664Zm.797 0h.665v.133h-.665Z" style="stroke-width:.372281"/><path fill="#286da8" d="M1.381 1.422v.198h1.675v-.198Zm2.792 2.926-.93.532.93.537v-.272h1.33v-.531h-1.33Z" style="stroke-width:.372281"/><path fill="#12b78c" d="M3.396 1.422v.198h1.728v-.198ZM2.332 4.614v.266h-1.33v.531h1.33v.272l.93-.537Z" style="stroke-width:.372281"/></svg>
